X: 35
T: The Squirrel Hunters
B: canberra pickers and fiddlers
B: tunes
M:4/4
L:1/8
Q: 1/4=175
K:Amixolydian
V:1 
|: "4"e3d .B2 Bd | efed .B2 BA | GABc d2 dc | dBcA BcBA |
| "4"e3d .B2 Bd | efed .B2 BA | GABc d2 B2 | "4" A8 :|
|: Bded eg a2 | ag edef g2 | BA GABcd2 | dcdB cABc |
| BAed egab | aged ef g2 | BAGA Bcd2 | B2 "4"A6 :|
% abcbook-tune_id 63da5934527d7d22b912038f
% abcbook-tune_composer_id 
% abcbook-link-0 https://www.youtube.com/watch?v=ojrbbYPC4lY
% abcbook-boost 10
% abcbook-difficulty 0
% abcbook-tags canberra pickers and fiddlers,old time tunes,© free
% abcbook-tablature 
% abcbook-transpose 
% abcbook-tuning GDAE
% abcbook-lastupdated 1739275045868
% abcbook-src-url https://tunebook.net/scrape/tunes.abc
% abcbook-soundfonts 
% abcbook-repeats 1
%%gchordfont "itim-music,Itim" 20

